storage/app/icons/phosphoricons/fill/numpad-fill.svg

<svg xmlns="http://www.w3.org/2000/svg" fill="currentColor" viewBox="0 0 256 256"><path d="M200 24H56a16 16 0 0 0-16 16v176a16 16 0 0 0 16 16h144a16 16 0 0 0 16-16V40a16 16 0 0 0-16-16M80 164a12 12 0 1 1 12-12 12 12 0 0 1-12 12m0-40a12 12 0 1 1 12-12 12 12 0 0 1-12 12m0-40a12 12 0 1 1 12-12 12 12 0 0 1-12 12m48 120a12 12 0 1 1 12-12 12 12 0 0 1-12 12m0-40a12 12 0 1 1 12-12 12 12 0 0 1-12 12m0-40a12 12 0 1 1 12-12 12 12 0 0 1-12 12m0-40a12 12 0 1 1 12-12 12 12 0 0 1-12 12m48 80a12 12 0 1 1 12-12 12 12 0 0 1-12 12m0-40a12 12 0 1 1 12-12 12 12 0 0 1-12 12m0-40a12 12 0 1 1 12-12 12 12 0 0 1-12 12"/></svg>

<svg xmlns="http://www.w3.org/2000/svg" viewBox="0 0 256 256" fill="currentColor"><path d="M200,24H56A16,16,0,0,0,40,40V216a16,16,0,0,0,16,16H200a16,16,0,0,0,16-16V40A16,16,0,0,0,200,24ZM80,164a12,12,0,1,1,12-12A12,12,0,0,1,80,164Zm0-40a12,12,0,1,1,12-12A12,12,0,0,1,80,124Zm0-40A12,12,0,1,1,92,72,12,12,0,0,1,80,84Zm48,120a12,12,0,1,1,12-12A12,12,0,0,1,128,204Zm0-40a12,12,0,1,1,12-12A12,12,0,0,1,128,164Zm0-40a12,12,0,1,1,12-12A12,12,0,0,1,128,124Zm0-40a12,12,0,1,1,12-12A12,12,0,0,1,128,84Zm48,80a12,12,0,1,1,12-12A12,12,0,0,1,176,164Zm0-40a12,12,0,1,1,12-12A12,12,0,0,1,176,124Zm0-40a12,12,0,1,1,12-12A12,12,0,0,1,176,84Z"/></svg>
